X: 864
T: Sally Johnson
B: jims roots
M:2/4
L:1/16
R: reel
Q: 1/4=100
K:G
V:1 
3EFG  | "G"B3B AAGG  |  DGBd efg2  |  B3B AAGG  |  "D"DEGB A2G-G  |
"G"B3B AAGG  |  DGBd efg2  |  "D"gedB AGED  |  DEGB "A"AG-G  ||
"G"g2ga b2ba  |  "Em"gagd eg3  |  "G"g2ga b2ba  |  "Em"gagd ed3  |
"G"g2ga b2ba  |  "Em"gagd eg3  |  "G"B2{c}BA G2D2  |  "D"EGGB "G"AGG2  ||
"Em"B2{c}BA GEFG  |  Bdef g4  |  B2{c}BA GEFG  |  "D"EGGA "G"G4  |
"Em"B2{c}BA GEFG  |  Bdef g4  |  B2{c}BA GEFG  |  "D"EGGA "G"G2  |]
V:DB, 
[DB,][DB,] [DA,][DA,][DG,][DG,]  |  [DB,][DB,]DD EFG2  |  [DB,][DB,][DB,][DB,] [DA,][DA,][DG,][DG,]  |  "D"BcB^G A4   |
[DB,][DB,] [DA,][DA,][DG,][DG,]  |  [DB,][DB,]DD EFG2  |  "D"gedB AGED  |  DEGB A"G"G3  ||
% abcbook-tune_id 6298c287abc2b035224be8fd


% abcbook-boost 0
% abcbook-tablature 
% abcbook-transpose 
% abcbook-lastupdated 1654178440089
% abcbook-soundfonts 
% abcbook-repeats 1


